svg/OSM-icons/aerialway #fdff5a °373737 !label=enaerial ways,deLifte und Seilbahnen/10009;aerialway=pylon;!name=;!pylon..shape=;!label=enpylon,dePylon.svg

<svg xmlns="http://www.w3.org/2000/svg" viewBox="0 0 580 580" enable-background="new 0 0 580 580"><path fill="#111" stroke="#eee" stroke-width="3.408" d="m66.28 1.768c-41.34 0-64.57 21.371-64.57 65.04v450.12c0 40.844 20.896 62.23 62.19 62.23h452.02c41.31 0 62.23-20.314 62.23-62.23v-450.12c0-42.602-20.923-65.04-63.52-65.04-.003 0-448.5-.143-448.35 0z"/><path fill="#fff" d="m432.83 214.5v-33.541h-.011c0-1.213-.623-2.37-1.705-3.01l-103.38-61.26-24.1-70.959c-.482-1.419-1.815-2.375-3.314-2.375h-2.58-15.481-2.578c-1.5 0-2.832.955-3.314 2.375l-24.1 70.959-103.38 61.27c-1.082.642-1.705 1.798-1.705 3.01h-.011v33.541h7v-30.04h97.5v40.948l-102.78 60.908c-1.082.642-1.705 1.798-1.705 3.01h-.011v33.542h7v-30.04h97.5v97.5l-79.53 141.11c-.851 1.509-.47 3.413.896 4.479.635.495 1.395.74 2.152.74.87 0 1.737-.323 2.409-.96l112.41-106.6 112.41 106.6c.672.637 1.539.96 2.409.96.757 0 1.517-.245 2.152-.74 1.365-1.065 1.746-2.97.896-4.479l-79.53-141.11v-97.5h97.5v30.04h7v-33.542h-.011c0-1.213-.623-2.37-1.705-3.01l-102.78-60.908v-40.948h97.5v30.04h7m-174.16-87.67l26.06 23.17-26.06 23.17v-46.34m5.705-4.294h51.25l-25.627 22.78-25.627-22.78m25.627 32.14l25.626 22.779h-51.25l25.627-22.779m5.267-4.683l26.06-23.17v46.34l-26.06-23.17m-13.08-99.65h.07 15.481.072l22.13 65.19h-59.895l22.14-65.19m-118.75 127.11l88.23-52.28v52.28h-88.23m95.23 57.736l26.27 23.35-26.27 23.604v-46.954m5.705-4.294h51.33l-25.524 22.936-25.803-22.936m25.828 32.32l25.426 22.601h-50.577l25.15-22.601m5.239-4.708l25.892-23.266v46.28l-25.892-23.01m25.892-37.655l-25.02-16.682 25.02-16.681v33.36m-8.06 3.039h-46.544l23.272-15.515 23.272 15.515m-54.604-3.039v-33.36l25.02 16.681-25.02 16.682m-7 12.682v52.28h-88.23l88.23-52.28m69.66 146.44l-27.2-39.534 27.2-39.798v79.33m-1.079 10.781l-30.25 28.689-30.26-28.695 30.15-44.11 30.36 44.12m-61.58-10.841v-78.66l26.973 39.2-26.973 39.461m-69.01 134.69l66.36-117.74 28.899 27.405-95.26 90.33m200.69 0l-95.26-90.33 28.898-27.405 66.36 117.74m-100.47-180.34l-28.514-41.44h56.839l-28.325 41.44m126.68-48.44h-88.23v-52.28l88.23 52.28m-126.56-85.85l-23.272-15.515h46.544l-23.272 15.515m38.33-22.514v-52.28l88.23 52.28h-88.23"/></svg>

<?xml version="1.0" encoding="utf-8"?>
<!-- Generator: Adobe Illustrator 15.0.0, SVG Export Plug-In . SVG Version: 6.00 Build 0)  -->
<!DOCTYPE svg PUBLIC "-//W3C//DTD SVG 1.1//EN" "http://www.w3.org/Graphics/SVG/1.1/DTD/svg11.dtd">
<svg version="1.1" xmlns="http://www.w3.org/2000/svg" xmlns:xlink="http://www.w3.org/1999/xlink" x="0px" y="0px" width="580px"
	 height="580px" viewBox="0 0 580 580" enable-background="new 0 0 580 580" xml:space="preserve">
<g id="Layer_2_1_">
	<g id="Layer_2">
		<g id="g1327">
			<path id="path1329" fill="#111111" stroke="#EEEEEE" stroke-width="3.408" d="M66.275,1.768
				c-41.335,0-64.571,21.371-64.571,65.036v450.123c0,40.844,20.896,62.229,62.192,62.229h452.024
				c41.307,0,62.229-20.314,62.229-62.229V66.804c0-42.602-20.923-65.036-63.521-65.036C514.625,1.768,66.133,1.625,66.275,1.768z"
				/>
		</g>
	</g>
</g>
<g id="Layer_1">
	<path fill="#FFFFFF" d="M432.829,214.498v-33.541h-0.011c0-1.213-0.623-2.37-1.705-3.011L327.73,116.682l-24.096-70.959
		c-0.482-1.419-1.815-2.375-3.314-2.375h-2.58h-15.481h-2.578c-1.5,0-2.832,0.955-3.314,2.375l-24.096,70.959l-103.384,61.265
		c-1.082,0.642-1.705,1.798-1.705,3.011h-0.011v33.541h7v-30.041h97.497v40.948l-102.781,60.908
		c-1.082,0.642-1.705,1.798-1.705,3.011h-0.011v33.542h7v-30.041h97.497v97.498l-79.533,141.109
		c-0.851,1.509-0.47,3.413,0.896,4.479c0.635,0.495,1.395,0.74,2.152,0.74c0.87,0,1.737-0.323,2.409-0.96L290,429.095
		l112.408,106.596c0.672,0.637,1.539,0.96,2.409,0.96c0.757,0,1.517-0.245,2.152-0.74c1.365-1.065,1.746-2.97,0.896-4.479
		l-79.533-141.109v-97.498h97.497v30.041h7v-33.542h-0.011c0-1.213-0.623-2.37-1.705-3.011l-102.781-60.908v-40.948h97.497v30.041
		H432.829z M258.668,126.827l26.064,23.168l-26.064,23.168V126.827z M264.373,122.533h51.254L290,145.313L264.373,122.533z
		 M290,154.678l25.626,22.779h-51.253L290,154.678z M295.267,149.995l26.064-23.168v46.337L295.267,149.995z M282.188,50.348h0.07
		h15.481h0.072l22.135,65.185h-59.895L282.188,50.348z M163.442,177.458l88.226-52.282v52.282H163.442z M258.668,235.194
		l26.269,23.35l-26.269,23.604V235.194z M264.373,230.9H315.7l-25.524,22.936L264.373,230.9z M290.201,263.224l25.426,22.601H265.05
		L290.201,263.224z M295.44,258.516l25.892-23.266v46.28L295.44,258.516z M321.332,220.861l-25.022-16.682l25.022-16.681V220.861z
		 M313.272,223.9h-46.544L290,208.385L313.272,223.9z M258.668,220.861v-33.363l25.022,16.681L258.668,220.861z M251.668,233.543
		v52.282h-88.226L251.668,233.543z M321.332,379.979l-27.203-39.534l27.203-39.798V379.979z M320.253,390.76L290,419.449
		l-30.26-28.695l30.153-44.113L320.253,390.76z M258.668,379.919V301.26l26.973,39.198L258.668,379.919z M189.654,514.605
		l66.36-117.738l28.899,27.405L189.654,514.605z M390.345,514.605l-95.259-90.333l28.898-27.405L390.345,514.605z M289.875,334.263
		l-28.514-41.438H318.2L289.875,334.263z M416.557,285.824h-88.226v-52.282L416.557,285.824z M290,199.972l-23.272-15.515h46.544
		L290,199.972z M328.332,177.458v-52.282l88.226,52.282H328.332z"/>
</g>
</svg>
